admin/src/theme/img/safetyequipment/2.svg

<svg width="32" height="32" viewBox="0 0 32 32" xmlns="http://www.w3.org/2000/svg">
  <g fill="none" fill-rule="evenodd">
    <path d="M0 0h32v32H0z"/>
    <path d="m4.16 9.08.04-.26666667.08-.22666666L4.46666667 8.28l.26666666-.34666667L5.04 7.70666667 5.38666667 7.52l.38666666-.14666667.34666667-.04.37333333-.08.38666667.08.18666667.12 2.48 4.75999997L13.0533333 18.92l-.3066666.08-.2666667.1466667-.3466667.1466666-.3066666.16L11.48 19.68l-.3466667.3466667L4.16 9.08ZM16 23.7733333c1.1466667 0 2.1066667.4 2.9066667 1.2133334.8.8133333 1.2 1.7733333 1.2 2.8933333s-.4 2.12-1.2 2.9066667c-.8.8-1.7733334 1.2-2.9066667 1.2s-2.1066667-.4-2.9066667-1.2c-.8-.8-1.2-1.7733334-1.2-2.9066667s.4-2.08 1.2-2.8933333c.8-.8133334 1.7733334-1.2133334 2.9066667-1.2133334ZM14.36 5.34666667 14.5066667 5.12l.16-.16.3466666-.14666667L15.4 4.62666667l.3866667-.04.3733333.04.4133333.04.3066667.12.3733333.14666666L17.52 5.2l.12.18666667L17.4533333 10.72l-.3466666 7.5733333-.3066667-.08-.3066667-.04-.3866666-.04H15.8l-.4133333.04-.4533334.12L14.36 5.34666667ZM24.9866667 7.4l.2266666-.08L25.44 7.24h.3466667L26.24 7.32l.3466667.16.3466666.22666667.3066667.22666666L27.4666667 8.2l.2266666.30666667.12.37333333.04.18666667L24.96 13.6 20.92 20l-.2266667-.2266667-.2666666-.1466666L20.12 19.4l-.3066667-.16-.3466666-.1866667-.4533334-.1466666 5.9733334-11.49333337V7.4Z" fill="#EC0E0E" fill-rule="nonzero"/>
  </g>
</svg>

<?xml version="1.0" encoding="UTF-8"?>
<svg width="32px" height="32px" viewBox="0 0 32 32" version="1.1" xmlns="http://www.w3.org/2000/svg" xmlns:xlink="http://www.w3.org/1999/xlink">
    <title>49E46CAA-C3F2-4235-A066-731824DCAF25</title>
    <g id="Squat-laskuri" stroke="none" stroke-width="1" fill="none" fill-rule="evenodd">
        <g id="colors_and_typography" transform="translate(-766.000000, -1098.000000)">
            <g id="turvalaite_ikonit" transform="translate(718.000000, 906.000000)">
                <g id="Asset-51" transform="translate(48.000000, 192.000000)">
                    <rect id="Rectangle" x="0" y="0" width="32" height="32"></rect>
                    <path d="M4.16,9.08 L4.2,8.81333333 L4.28,8.58666667 L4.46666667,8.28 L4.73333333,7.93333333 L5.04,7.70666667 L5.38666667,7.52 L5.77333333,7.37333333 L6.12,7.33333333 L6.49333333,7.25333333 L6.88,7.33333333 L7.06666667,7.45333333 L9.54666667,12.2133333 L13.0533333,18.92 L12.7466667,19 L12.48,19.1466667 L12.1333333,19.2933333 L11.8266667,19.4533333 L11.48,19.68 L11.1333333,20.0266667 L4.16,9.08 Z M16,23.7733333 C17.1466667,23.7733333 18.1066667,24.1733333 18.9066667,24.9866667 C19.7066667,25.8 20.1066667,26.76 20.1066667,27.88 C20.1066667,29 19.7066667,30 18.9066667,30.7866667 C18.1066667,31.5866667 17.1333333,31.9866667 16,31.9866667 C14.8666667,31.9866667 13.8933333,31.5866667 13.0933333,30.7866667 C12.2933333,29.9866667 11.8933333,29.0133333 11.8933333,27.88 C11.8933333,26.7466667 12.2933333,25.8 13.0933333,24.9866667 C13.8933333,24.1733333 14.8666667,23.7733333 16,23.7733333 L16,23.7733333 Z M14.36,5.34666667 L14.5066667,5.12 L14.6666667,4.96 L15.0133333,4.81333333 L15.4,4.62666667 L15.7866667,4.58666667 L16.16,4.62666667 L16.5733333,4.66666667 L16.88,4.78666667 L17.2533333,4.93333333 L17.52,5.2 L17.64,5.38666667 L17.4533333,10.72 L17.1066667,18.2933333 L16.8,18.2133333 L16.4933333,18.1733333 L16.1066667,18.1333333 L15.8,18.1333333 L15.3866667,18.1733333 L14.9333333,18.2933333 L14.36,5.34666667 L14.36,5.34666667 Z M24.9866667,7.4 L25.2133333,7.32 L25.44,7.24 L25.7866667,7.24 L26.24,7.32 L26.5866667,7.48 L26.9333333,7.70666667 L27.24,7.93333333 L27.4666667,8.2 L27.6933333,8.50666667 L27.8133333,8.88 L27.8533333,9.06666667 L24.96,13.6 L20.92,20 L20.6933333,19.7733333 L20.4266667,19.6266667 L20.12,19.4 L19.8133333,19.24 L19.4666667,19.0533333 L19.0133333,18.9066667 L24.9866667,7.41333333 L24.9866667,7.4 Z" id="Shape" fill="#EC0E0E" fill-rule="nonzero"></path>
                </g>
            </g>
        </g>
    </g>
</svg>
